X:3604
T:Catching of Fleas, The
R:Triple Hornpipe
C:Trad. in Playford 1670.
O:England
M:6/4
L:1/4
Q:3/4=70
K:D
%%MIDI beatstring fmpfmp
%%MIDI gchord cfccfc
A| "D"F>ED A2 d| "A"c>BA e>dc | "D"dAF "A"ecA| "F#m"fe>c "D"d2:|
|:f | "A"e>fd "F#m"c>dB| "F#"^AFB AFd| "G"BGc/2d/2 "A"ecd/2e/2 | "Bm"fe>d "D"d2 f|
"A"e>fd c/2d/2eF| "Bm"B/2c/2dB "F#m"A/2B/2 cF| "Em"e/2f/2ge "Bm"f>ed/2c/2| "D"d c2 "Bm"B2:|

